public/logos/DL.svg

<?xml version="1.0" encoding="UTF-8"?>
<svg xmlns="http://www.w3.org/2000/svg" xmlns:xlink="http://www.w3.org/1999/xlink" width="176pt" height="27.11pt" viewBox="0 0 176 27.11" version="1.1">
<defs>
<clipPath id="clip1">
  <path d="M 16 0 L 34 0 L 34 27.109375 L 16 27.109375 Z M 16 0 "/>
</clipPath>
<clipPath id="clip2">
  <path d="M 0 19 L 17 19 L 17 27.109375 L 0 27.109375 Z M 0 19 "/>
</clipPath>
</defs>
<g id="surface1">
<g clip-path="url(#clip1)" clip-rule="nonzero">
<path style=" stroke:none;fill-rule:nonzero;fill:rgb(59.318542%,9.037781%,19.60144%);fill-opacity:1;" d="M 33.9375 27.109375 L 16.96875 19.941406 L 16.445312 20.730469 L 16.445312 27.109375 Z M 32.691406 24.214844 L 16.96875 16.648438 L 16.445312 16.144531 L 16.695312 1.046875 L 16.96875 0 "/>
</g>
<path style=" stroke:none;fill-rule:nonzero;fill:rgb(88.381958%,10.124207%,19.863892%);fill-opacity:1;" d="M 1.242188 24.214844 L 16.96875 0 L 16.96875 16.648438 "/>
<g clip-path="url(#clip2)" clip-rule="nonzero">
<path style=" stroke:none;fill-rule:nonzero;fill:rgb(88.381958%,10.124207%,19.863892%);fill-opacity:1;" d="M 0 27.109375 L 16.96875 27.109375 L 16.96875 19.941406 "/>
</g>
<path style=" stroke:none;fill-rule:nonzero;fill:rgb(12.760925%,20.463562%,38.606262%);fill-opacity:1;" d="M 52 6.367188 L 54.804688 6.367188 C 59.894531 6.367188 62.441406 8.875 62.441406 13.414062 C 62.441406 17.949219 59.894531 20.460938 54.804688 20.460938 L 52 20.460938 Z M 47.179688 24.214844 L 54.808594 24.214844 C 62.648438 24.214844 67.332031 20.15625 67.332031 13.414062 C 67.332031 6.671875 62.648438 2.617188 54.808594 2.617188 L 47.179688 2.617188 "/>
<path style=" stroke:none;fill-rule:nonzero;fill:rgb(12.760925%,20.463562%,38.606262%);fill-opacity:1;" d="M 83.71875 14.851562 L 92.890625 14.851562 L 92.890625 11.101562 L 83.71875 11.101562 L 83.71875 6.367188 L 94.089844 6.367188 L 94.089844 2.617188 L 78.890625 2.617188 L 78.890625 24.214844 L 94.425781 24.214844 L 94.425781 20.464844 L 83.71875 20.460938 "/>
<path style=" stroke:none;fill-rule:nonzero;fill:rgb(12.760925%,20.463562%,38.606262%);fill-opacity:1;" d="M 121.910156 20.464844 L 112.609375 20.464844 L 112.609375 2.617188 L 107.769531 2.617188 L 107.769531 24.214844 L 121.910156 24.214844 "/>
<path style=" stroke:none;fill-rule:nonzero;fill:rgb(12.760925%,20.463562%,38.606262%);fill-opacity:1;" d="M 147.964844 2.617188 L 128.578125 2.617188 L 128.578125 6.367188 L 135.84375 6.367188 L 135.84375 24.214844 L 140.691406 24.214844 L 140.691406 6.367188 L 147.964844 6.367188 "/>
<path style=" stroke:none;fill-rule:nonzero;fill:rgb(12.760925%,20.463562%,38.606262%);fill-opacity:1;" d="M 167.460938 15.191406 L 164.441406 7.523438 L 161.417969 15.191406 Z M 176 24.214844 L 170.945312 24.214844 L 168.832031 18.804688 L 160.042969 18.804688 L 157.933594 24.214844 L 153.214844 24.214844 L 162.246094 2.523438 L 167.121094 2.523438 "/>
</g>
</svg>

<svg xmlns="http://www.w3.org/2000/svg" width="176pt" height="36.147" viewBox="0 0 176 27.11"><defs><clipPath id="a"><path d="M16 0h18v27.11H16Zm0 0"/></clipPath><clipPath id="b"><path d="M0 19h17v8.11H0Zm0 0"/></clipPath></defs><g clip-path="url(#a)"><path d="m33.938 27.11-16.97-7.169-.523.79v6.378Zm-1.247-2.895L16.97 16.648l-.524-.503.25-15.098L16.97 0" style="stroke:none;fill-rule:nonzero;fill:#971732;fill-opacity:1"/></g><path d="M1.242 24.215 16.97 0v16.648" style="stroke:none;fill-rule:nonzero;fill:#e11a33;fill-opacity:1"/><g clip-path="url(#b)"><path d="M0 27.11h16.969V19.94" style="stroke:none;fill-rule:nonzero;fill:#e11a33;fill-opacity:1"/></g><path d="M52 6.367h2.805c5.09 0 7.636 2.508 7.636 7.047 0 4.535-2.546 7.047-7.636 7.047H52Zm-4.82 17.848h7.629c7.84 0 12.523-4.059 12.523-10.8 0-6.743-4.684-10.798-12.523-10.798h-7.63M83.719 14.852h9.172v-3.75h-9.172V6.367h10.37v-3.75H78.892v21.598h15.535v-3.75l-10.707-.004M121.91 20.465h-9.3V2.617h-4.84v21.598h14.14M147.965 2.617h-19.387v3.75h7.266v17.848h4.847V6.367h7.274M167.46 15.191l-3.019-7.668-3.023 7.668Zm8.54 9.024h-5.055l-2.113-5.41h-8.789l-2.11 5.41h-4.718l9.031-21.692h4.875" style="stroke:none;fill-rule:nonzero;fill:#213462;fill-opacity:1"/></svg>
